X: 4417
T: Bonkers In Yonkers
R: reel
M: 4/4
K: Amajor
|:Ae e/e/e gage|e/e/e ec dcBG|Ac c/c/c dcBA|G/G/G FG EFGE|
Ae e/e/e gage|e/e/e ec dcBG|AecA dcBA|GEFG A2 AG:|
|:E2-EA GA E2-|EAGA EDCD|E2 EA GABc|dfec dcBA|E2-EA GA E2-|
EAGA EDCD|1 EAAG ABcd-|dcBG A2 AG:|2 EAAG ABcd-|dcBG A4||

